packages/kaspersky-hexa-ui-icons/src/iconsSVGs/24/Document.svg

<svg width="24" height="24" viewBox="0 0 24 24" fill="none" xmlns="http://www.w3.org/2000/svg">
<path fill-rule="evenodd" clip-rule="evenodd" d="M7 2C5.34315 2 4 3.34315 4 5V9H6V5C6 4.44772 6.44772 4 7 4H12.0093L12.0093 6.98487C12.0093 8.64173 13.3524 9.98487 15.0093 9.98487H17.3636H20V9.21461C20 8.81866 19.8434 8.43877 19.5645 8.15778L13.891 2.44317C13.6093 2.15952 13.2262 2 12.8265 2H7ZM16.5745 7.98487L14.0093 5.40105L14.0093 6.98487C14.0093 7.53716 14.457 7.98487 15.0093 7.98487H16.5745Z" fill="black"/>
<path d="M4.17071 20C4.58254 21.1652 5.69378 22 7 22H17C18.5434 22 19.8146 20.8345 19.9814 19.3356C19.324 19.5626 18.6035 19.5545 17.9506 19.3113C17.8198 19.7111 17.4436 20 17 20H4.17071Z" fill="black"/>
<path d="M18.2929 11.7929C18.6834 11.4024 19.3166 11.4024 19.7071 11.7929L21.7071 13.7929C22.0976 14.1834 22.0976 14.8166 21.7071 15.2071L19.7071 17.2071C19.3166 17.5976 18.6834 17.5976 18.2929 17.2071C17.9024 16.8166 17.9024 16.1834 18.2929 15.7929L18.5858 15.5H14C13.4477 15.5 13 15.0523 13 14.5C13 13.9477 13.4477 13.5 14 13.5H18.5858L18.2929 13.2071C17.9024 12.8166 17.9024 12.1834 18.2929 11.7929Z" fill="black"/>
<path d="M3 18C2.44772 18 2 17.5523 2 17C2 16.4477 2.44772 16 3 16H8C8.55228 16 9 15.5523 9 15V14C9 13.4477 8.55228 13 8 13H3C2.44772 13 2 12.5523 2 12C2 11.4477 2.44772 11 3 11H8C9.65685 11 11 12.3431 11 14V15C11 16.6569 9.65685 18 8 18H3Z" fill="black"/>
</svg>

<svg xmlns="http://www.w3.org/2000/svg" width="24" height="24" fill="none" viewBox="0 0 24 24"><path fill="#000" fill-rule="evenodd" d="M7 2C5.3431 2 4 3.3431 4 5v4h2V5c0-.5523.4477-1 1-1h5.0093v2.9849c0 1.6568 1.3431 3 3 3H20v-.7703c0-.396-.1566-.7758-.4355-1.0568L13.891 2.4432A1.5 1.5 0 0 0 12.8265 2zm9.5745 5.9849L14.0093 5.401v1.584c0 .5523.4477 1 1 1zM3 18c-.5523 0-1-.4477-1-1s.4477-1 1-1h5c.5523 0 1-.4477 1-1v-1c0-.5523-.4477-1-1-1H3c-.5523 0-1-.4477-1-1s.4477-1 1-1h5c1.6569 0 3 1.3431 3 3v1c0 1.6569-1.3431 3-3 3zm15.2929-6.2071c.3905-.3905 1.0237-.3905 1.4142 0l2 2c.3905.3905.3905 1.0237 0 1.4142l-2 2c-.3905.3905-1.0237.3905-1.4142 0s-.3905-1.0237 0-1.4142l.2929-.2929H14c-.5523 0-1-.4477-1-1s.4477-1 1-1h4.5858l-.2929-.2929c-.3905-.3905-.3905-1.0237 0-1.4142M4.1707 20c.4118 1.1652 1.523 2 2.8293 2h10c1.5434 0 2.8146-1.1655 2.9814-2.6644a3.012 3.012 0 0 1-2.0308-.0243c-.1308.3998-.507.6887-.9506.6887z"/></svg>
